!!!PDT:	1923
!!!LANG: Non-Tone
!!!LING_GROUP: Siouan
!!!REG: Dakotas
!!!COM: Anon.
!!!OTL: The Captive Song
!!!ODT: <1918//
!!!MPN: Wopite [Scattered Corn, Mrs. Holding Eagle]
!!!MLC: Fort Berthold Reservation, North Dakota, United States of America
!! Song was recorded during either the summer of 1912, 1915, or 1918.
!!!AGN: monody
!!!SOCIAL_FUNCTION: Mandan Goose Women Society
!!!AMT: irregular
!!!RWG: Transcribed pitches, durations, and meters are only approximate.
!! Drum not recorded.
**kern
*ICvox
*Ifemale
*clefG2
*k[b-]
*M3/4
*MM80
=1-
4a
4a
16a
8.g
*M2/4
=2
4f
4f
*M3/4
=3
4.a
8a
4a
=4
4cc
4cc
(16dd
8.cc)
*M2/4
=5
4b-
(16cc
8.b-)
*M3/4
=6
([2a
8a]
8g)
*M2/4
=7
[2f
=8
4f]
4r
*M3/4
=9
4f
4f
4f
=10
4g
4g
(16a
8.g)
*M2/4
=11
4f
[4f
=12
4f]
4e
=13
2f
=14
8g
8f
4f
*M3/4
=15
2.f
*M2/4
=16
2f
==
*-
!!!CNT: Mandan
!!!TXO: Mandan
!!!OCY: United States
!!!OCL: Frances Densmore
!!!YOR: Frances Densmore, "Mandan and Hidatsa Music",
!!!YOR: Bulletin 80, page 42, No. 1
!!!PPR: Smithsonian Institution, Bureau of American Ethnology
!!!PPR: Government Printing Office
!!!PDT: 1923
!!!PPP: Washington, DC, United States of America
!!!YEC: Electronic Copyright 2000 David Huron
!!!YER: August 2000
!!!YEN: United States of America
!!!ENC: David Huron
!!!RDT: August 16, 2000
!!!EEV: Release 1.0
!!!AIN: tom, vox
